X: 37494
T: Sligo Maid, The
R: reel
M: 4/4
K: Edorian
|:E2FE (3F^GA Bc|dBAF edBc|d2fd Adfd|ABde fe e2|
E2FE (3F^GA Bc|dBAF edBd|f3d e2 dB|ABde fe e2:|
|:Beed e2de|fdec dcBA|Bddc d2dB|ABde fded|
Beed e2de|fdec dcBA|Bd (3dcd BAFB|AFdF FEE2:|

